X: 39627
T: Tempest, The
R: reel
M: 4/4
K: Dmixolydian
|:d2 cA GE (3EEE|DEGE c (3EEE|d2cA GEcE|EDCD ED2A|
d2 cA GE (3EEE|DEGE c (3EEE|AdcA GEcE|EDCD ED (3DDD:|
|:d2 ed cAGc|AdcA GE (3EEE|d2 ed cdeg|edcA d4|
(3ege dg ecAG|cAGc AE (3EEE|DEGc AEcE|EDCD EDAc:|

